svg/fluentui-system-icons/ic_fluent_cloud_arrow_up_48_filled.svg

<svg width="48" height="48" viewBox="0 0 48 48" fill="none" xmlns="http://www.w3.org/2000/svg">
<path d="M24 6C18.262 6 13.5501 10.3935 13.0448 16H12.75C8.46979 16 5 19.4698 5 23.75C5 28.0302 8.46979 31.5 12.75 31.5H20.0856C20.8293 25.0268 26.3276 20 33 20C36.993 20 40.5655 21.8002 42.9502 24.6333C42.9831 24.3434 43 24.0487 43 23.75C43 19.4698 39.5302 16 35.25 16H34.9552C34.4499 10.3935 29.738 6 24 6ZM44 33C44 26.9249 39.0751 22 33 22C26.9249 22 22 26.9249 22 33C22 39.0751 26.9249 44 33 44C39.0751 44 44 39.0751 44 33ZM33 25C33.2652 25 33.5196 25.1054 33.7071 25.2929L38.7071 30.2929C39.0976 30.6834 39.0976 31.3166 38.7071 31.7071C38.3166 32.0976 37.6834 32.0976 37.2929 31.7071L34 28.4142V40C34 40.5523 33.5523 41 33 41C32.4477 41 32 40.5523 32 40V28.4142L28.7071 31.7071C28.3166 32.0976 27.6834 32.0976 27.2929 31.7071C26.9024 31.3166 26.9024 30.6834 27.2929 30.2929L32.2929 25.2929C32.4804 25.1054 32.7348 25 33 25Z" fill="#212121"/>
</svg>

<svg xmlns="http://www.w3.org/2000/svg" width="48" height="48"><path d="M24 6c-5.738 0-10.45 4.393-10.955 10h-.295a7.75 7.75 0 0 0 0 15.5h7.336C20.829 25.027 26.328 20 33 20c3.993 0 7.566 1.8 9.95 4.633A7.75 7.75 0 0 0 35.25 16h-.295C34.45 10.393 29.738 6 24 6Zm20 27c0-6.075-4.925-11-11-11s-11 4.925-11 11 4.925 11 11 11 11-4.925 11-11Zm-11-8a1 1 0 0 1 .707.293l5 5a1 1 0 0 1-1.414 1.414L34 28.414V40a1 1 0 1 1-2 0V28.414l-3.293 3.293a1 1 0 0 1-1.414-1.414l5-5A1 1 0 0 1 33 25Z"/></svg>
